svgs/light/house.svg

<svg xmlns="http://www.w3.org/2000/svg" viewBox="0 0 576 512"><!--! Font Awesome Pro 6.6.0 by @fontawesome - https://fontawesome.com License - https://fontawesome.com/license (Commercial License) Copyright 2024 Fonticons, Inc. --><path d="M298.6 4c-6-5.3-15.1-5.3-21.2 0L5.4 244c-6.6 5.8-7.3 16-1.4 22.6s16 7.3 22.6 1.4L64 235l0 197c0 44.2 35.8 80 80 80l288 0c44.2 0 80-35.8 80-80l0-197 37.4 33c6.6 5.8 16.7 5.2 22.6-1.4s5.2-16.7-1.4-22.6L298.6 4zM96 432l0-225.3L288 37.3 480 206.7 480 432c0 26.5-21.5 48-48 48l-64 0 0-160c0-17.7-14.3-32-32-32l-96 0c-17.7 0-32 14.3-32 32l0 160-64 0c-26.5 0-48-21.5-48-48zm144 48l0-160 96 0 0 160-96 0z"/></svg>

<svg xmlns="http://www.w3.org/2000/svg" viewBox="0 0 576 512"><!--! Font Awesome Pro 6.4.0 by @fontawesome - https://fontawesome.com License - https://fontawesome.com/license (Commercial License) Copyright 2023 Fonticons, Inc. --><path d="M298.6 4c-6-5.3-15.1-5.3-21.2 0L5.4 244c-6.6 5.8-7.3 16-1.4 22.6s16 7.3 22.6 1.4L64 235V432c0 44.2 35.8 80 80 80H432c44.2 0 80-35.8 80-80V235l37.4 33c6.6 5.8 16.7 5.2 22.6-1.4s5.2-16.7-1.4-22.6L298.6 4zM96 432V206.7L288 37.3 480 206.7V432c0 26.5-21.5 48-48 48H368V320c0-17.7-14.3-32-32-32H240c-17.7 0-32 14.3-32 32V480H144c-26.5 0-48-21.5-48-48zm144 48V320h96V480H240z"/></svg>
